X:615
T: Big Barney's
T: Port Bhriain Mh\'oir
S: B.Breathnach:"Ceol Rince na hEireann" IV/7
Z: B.Black
L: 1/8
M: 6/8
R: jig
K: G
d|GBd gfe|dec B2c|dBG G2A|BGE E2F|
GBd gfe|dec B2c|dBG ABc|BGG G2 :|
d|gfg efg|dec BAG|gfg efg|fdd d2d|
efg gfe|dec B2c|dBG ABc|BGG G2 :|
